server/website/public/icons/base/user.svg

<svg width="48" height="48" viewBox="0 0 48 48" fill="none" xmlns="http://www.w3.org/2000/svg">
<path d="M46 39.9062C46 42.4062 45.2569 44.3802 43.7706 45.8281C42.2843 47.276 40.3094 48 37.8459 48H11.1541C8.69058 48 6.71567 47.276 5.2294 45.8281C3.74313 44.3802 3 42.4062 3 39.9062C3 38.8021 3.03563 37.724 3.10689 36.6719C3.17815 35.6198 3.32067 34.4844 3.53445 33.2656C3.74822 32.0469 4.01799 30.9167 4.34375 29.875C4.66951 28.8333 5.10724 27.8177 5.65696 26.8281C6.20668 25.8385 6.83783 24.9948 7.55043 24.2969C8.26302 23.599 9.13341 23.0417 10.1616 22.625C11.1898 22.2083 12.3248 22 13.5668 22C13.7704 22 14.2081 22.224 14.88 22.6719C15.5518 23.1198 16.295 23.6198 17.1094 24.1719C17.9238 24.724 19.013 25.224 20.3771 25.6719C21.7412 26.1198 23.1155 26.3438 24.5 26.3438C25.8845 26.3438 27.2588 26.1198 28.6229 25.6719C29.987 25.224 31.0762 24.724 31.8906 24.1719C32.705 23.6198 33.4482 23.1198 34.12 22.6719C34.7919 22.224 35.2296 22 35.4332 22C36.6752 22 37.8103 22.2083 38.8384 22.625C39.8666 23.0417 40.737 23.599 41.4496 24.2969C42.1622 24.9948 42.7933 25.8385 43.343 26.8281C43.8928 27.8177 44.3305 28.8333 44.6562 29.875C44.982 30.9167 45.2518 32.0469 45.4656 33.2656C45.6793 34.4844 45.8219 35.6198 45.8931 36.6719C45.9644 37.724 46 38.8021 46 39.9062ZM36.2273 12C36.2273 15.3125 35.082 18.1406 32.7916 20.4844C30.5011 22.8281 27.7372 24 24.5 24C21.2628 24 18.4989 22.8281 16.2085 20.4844C13.918 18.1406 12.7727 15.3125 12.7727 12C12.7727 8.6875 13.918 5.85938 16.2085 3.51563C18.4989 1.17188 21.2628 0 24.5 0C27.7372 0 30.5011 1.17188 32.7916 3.51563C35.082 5.85938 36.2273 8.6875 36.2273 12Z" fill="black"/>
</svg>

<svg width="48" height="48" fill="none" xmlns="http://www.w3.org/2000/svg"><path d="M46 39.906c0 2.5-.743 4.474-2.23 5.922C42.285 47.276 40.31 48 37.847 48H11.154c-2.463 0-4.438-.724-5.925-2.172C3.743 44.38 3 42.406 3 39.906c0-1.104.036-2.182.107-3.234.071-1.052.214-2.188.427-3.406a27 27 0 01.81-3.391 16.256 16.256 0 011.313-3.047c.55-.99 1.18-1.833 1.893-2.531.713-.698 1.583-1.255 2.612-1.672 1.028-.417 2.163-.625 3.405-.625.203 0 .641.224 1.313.672.672.448 1.415.948 2.23 1.5.814.552 1.903 1.052 3.267 1.5 1.364.448 2.739.672 4.123.672 1.384 0 2.759-.224 4.123-.672 1.364-.448 2.453-.948 3.268-1.5.814-.552 1.557-1.052 2.229-1.5.672-.448 1.11-.672 1.313-.672 1.242 0 2.377.208 3.405.625 1.029.417 1.899.974 2.612 1.672.712.698 1.343 1.541 1.893 2.531.55.99.987 2.005 1.313 3.047.326 1.042.596 2.172.81 3.39.213 1.22.356 2.355.427 3.407A47.84 47.84 0 0146 39.906zM36.227 12c0 3.313-1.145 6.14-3.435 8.484C30.502 22.828 27.737 24 24.5 24s-6.001-1.172-8.291-3.516c-2.291-2.343-3.436-5.172-3.436-8.484 0-3.313 1.145-6.14 3.436-8.484C18.498 1.172 21.263 0 24.5 0s6.001 1.172 8.292 3.516c2.29 2.343 3.435 5.171 3.435 8.484z" fill="#000"/></svg>
